packages/icons/src/acr-ci-step-inverse.svg

<svg fill="none" viewBox="0 0 41 41" xmlns="http://www.w3.org/2000/svg" xmlns:xlink="http://www.w3.org/1999/xlink"><clipPath id="a"><path d="m.661621.967606h40v40h-40z"/></clipPath><g clip-path="url(#a)"><path d="m12.8103 29.925h-5.56663c-3.71713-.9248-6.582049-3.8441-6.582049-7.7244 0-3.2094 2.067089-6.1469 4.877609-7.2529-.03627-.3446-.0544-.6709-.0544-1.0155 0-5.5122 4.47869-9.97276 9.99097-9.97276 3.0281 0 5.8748 1.37806 7.7787 3.73527 1.1243-.5621 2.3754-.87035 3.6446-.85222 4.3699 0 8.1415 3.88031 8.3047 8.19581l-14.9048-6.14685-7.4887 4.47865z" fill="#f3f3fa"/><path d="m40.6616 34.041-20.5439 3.9166.0906-14.4334 20.4533 3.7897zm-20.4714-23.2819 20.4714 7.7062v7.7063l-20.4351-4.3518" fill="#f3f3fa"/><path d="m20.2258 21.8198-5.5666 2.5929v-10.281l5.5303-3.3726m19.5467 14.524-18.5675-4.243v-9.2112l18.5675 6.854zm-10.2085-3.3001 1.8495.5077v-6.0199l-1.8495-.6528zm-1.8676-6.7452-1.8495-.6709v6.4188l1.8495.5259zm5.5848 7.7606 1.8313.4896.0363-5.7298-1.8676-.6165zm-11.1515-2.9556 1.8495.4715v-6.5639l-1.8495-.6165zm16.7181-1.0335-1.8495-.6528v5.6029l1.8495.5077zm-17.6428 6.0381v11.9129l18.5675-3.4089v-5.6391zm.9247 10.5167v-9.1749l1.8495.2357v8.631zm5.5667-.9247-1.8495.3445v-8.1052l1.8495.272c0-.0181 0 7.4887 0 7.4887zm1.8676-.272v-7.0354l1.8495.2358v6.4551zm5.5667-.9791-1.8495.3082v-5.9111l1.8495.2719zm3.7715-.5984-1.922.3264v-4.8595l1.7951.2176z" fill="#d9dee5"/><path d="m16.5458 21.6384-.9247.544v-7.3074l.9247-.5077zm1.8495-8.3227-.9247.6346v7.1079l.9247-.5077z" fill="#f3f3fa"/><path d="m14.6598 34.6575-.0363-8.4497 5.5848-2.7017.0363 14.4696" fill="#d9dee5"/><path d="m16.4186 34.6213-.8522-.4352v-7.126l.8522-.3808zm1.9946-8.8305-.9248.3989-.0362 8.9937.961.4895z" fill="#f3f3fa"/><path d="m38.794 19.6077-16.6818-5.6029.0181-.7253 16.6637 5.7298zm-.0544 8.8848-16.6093-2.0852v.7253l16.6274 1.9583zm-20.3445-14.2339v-.9066l-2.7018 1.4868-.0362.7616zm-2.8106 13.3454 2.8287-1.0335v-.7797l-2.8468 1.2693z" fill="#c4c5d0"/><path clip-rule="evenodd" d="m29.4688 25.2401 11.1925 2.0738v6.7272l-20.3967 3.8884zm.9123-1.2578 5.3301-7.3483 4.9501 1.8676v7.6699z" fill="#f3f3fa" fill-rule="evenodd" opacity=".3"/></g></svg>

<svg viewBox="0 0 41 41" fill="none" xmlns="http://www.w3.org/2000/svg">
<g clip-path="url(#clip0_2952_318989)">
<path d="M12.8103 29.925H7.24367C3.52654 29.0002 0.661621 26.0809 0.661621 22.2006C0.661621 18.9912 2.72871 16.0537 5.53923 14.9477C5.50296 14.6031 5.48483 14.2768 5.48483 13.9322C5.48483 8.42 9.96352 3.95944 15.4758 3.95944C18.5039 3.95944 21.3506 5.3375 23.2545 7.69471C24.3788 7.13261 25.6299 6.82436 26.8991 6.84249C31.269 6.84249 35.0406 10.7228 35.2038 15.0383L20.299 8.89145L12.8103 13.3701V29.925Z" fill="#F3F3FA"/>
<path d="M40.6616 34.041L20.1177 37.9576L20.2083 23.5242L40.6616 27.3139L40.6616 34.041ZM20.1902 10.7591L40.6616 18.4653V26.1716L20.2265 21.8198" fill="#F3F3FA"/>
<path d="M20.2258 21.8198L14.6592 24.4127V14.1317L20.1895 10.7591M39.7362 25.2831L21.1687 21.0401V11.8289L39.7362 18.6829V25.2831ZM29.5277 21.983L31.3772 22.4907V16.4708L29.5277 15.818V21.983ZM27.6601 15.2378L25.8106 14.5669V20.9857L27.6601 21.5116V15.2378ZM33.2449 22.9984L35.0762 23.488L35.1125 17.7582L33.2449 17.1417L33.2449 22.9984ZM22.0934 20.0428L23.9429 20.5143V13.9504L22.0934 13.3339V20.0428ZM38.8115 19.0093L36.962 18.3565V23.9594L38.8115 24.4671V19.0093ZM21.1687 25.0474V36.9603L39.7362 33.5514V27.9123L21.1687 25.0474ZM22.0934 35.5641V26.3892L23.9429 26.6249V35.2559L22.0934 35.5641ZM27.6601 34.6394L25.8106 34.9839V26.8787L27.6601 27.1507C27.6601 27.1326 27.6601 34.6394 27.6601 34.6394ZM29.5277 34.3674V27.332L31.3772 27.5678V34.0229L29.5277 34.3674ZM35.0944 33.3883L33.2449 33.6965V27.7854L35.0944 28.0573V33.3883ZM38.8659 32.7899L36.9439 33.1163V28.2568L38.739 28.4744L38.8659 32.7899Z" fill="#D9DEE5"/>
<path d="M16.5458 21.6384L15.6211 22.1824V14.875L16.5458 14.3673V21.6384ZM18.3953 13.3157L17.4706 13.9503V21.0582L18.3953 20.5505V13.3157Z" fill="#F3F3FA"/>
<path d="M14.6598 34.6575L14.6235 26.2078L20.2083 23.5061L20.2446 37.9757" fill="#D9DEE5"/>
<path d="M16.4186 34.6213L15.5664 34.1861V27.0601L16.4186 26.6793V34.6213ZM18.4132 25.7908L17.4884 26.1897L17.4522 35.1834L18.4132 35.6729L18.4132 25.7908Z" fill="#F3F3FA"/>
<path d="M38.794 19.6077L22.1122 14.0048L22.1303 13.2795L38.794 19.0093V19.6077ZM38.7396 28.4925L22.1303 26.4073V27.1326L38.7577 29.0909L38.7396 28.4925ZM18.3951 14.2586V13.352L15.6933 14.8388L15.6571 15.6004L18.3951 14.2586ZM15.5845 27.604L18.4132 26.5705V25.7908L15.5664 27.0601L15.5845 27.604Z" fill="#C4C5D0"/>
<path opacity="0.3" fill-rule="evenodd" clip-rule="evenodd" d="M29.4688 25.2401L40.6613 27.3139V34.0411L20.2646 37.9295L29.4688 25.2401ZM30.3811 23.9823L35.7112 16.634L40.6613 18.5016V26.1715L30.3811 23.9823Z" fill="#F3F3FA"/>
</g>
<defs>
<clipPath id="clip0_2952_318989">
<rect width="40" height="40" fill="white" transform="translate(0.661621 0.967606)"/>
</clipPath>
</defs>
</svg>
